src/Pure/16/symbolic/actions/format-text-underline-fr-symbolic.svg

<?xml version="1.0" encoding="UTF-8" standalone="no"?>
<svg
   width="16"
   height="16"
   version="1.1"
   id="svg2"
   sodipodi:docname="format-text-underline-fr-symbolic.svg"
   inkscape:version="1.4.2 (ebf0e940d0, 2025-05-08)"
   xmlns:inkscape="http://www.inkscape.org/namespaces/inkscape"
   xmlns:sodipodi="http://sodipodi.sourceforge.net/DTD/sodipodi-0.dtd"
   xmlns="http://www.w3.org/2000/svg"
   xmlns:svg="http://www.w3.org/2000/svg">
  <defs
     id="defs2">
      <style id="current-color-scheme" type="text/css">
          .ColorScheme-Text { color:#363636; }
      </style>
  </defs>
  <sodipodi:namedview
     id="namedview2"
     pagecolor="#ffffff"
     bordercolor="#000000"
     borderopacity="0.25"
     inkscape:showpageshadow="2"
     inkscape:pageopacity="0.0"
     inkscape:pagecheckerboard="0"
     inkscape:deskcolor="#d1d1d1"
     inkscape:zoom="49.6875"
     inkscape:cx="8"
     inkscape:cy="8"
     inkscape:window-width="1920"
     inkscape:window-height="1010"
     inkscape:window-x="0"
     inkscape:window-y="0"
     inkscape:window-maximized="1"
     inkscape:current-layer="svg2" />
  <path
     id="path1"
     style="fill:currentColor"
     class="ColorScheme-Text"
     d="M 7.9199219 2 C 5.6162219 2 4.1914062 3.1814312 4.1914062 5.0820312 C 4.1914062 6.3634313 4.8678 7.1693969 6.25 7.5292969 L 8.8574219 8.2207031 C 10.196422 8.5662531 10.785156 9.0972387 10.785156 9.9179688 C 10.785156 10.479489 10.483439 11.056247 10.037109 11.373047 C 9.6195694 11.675407 8.9569219 11.820312 8.1074219 11.820312 C 6.9556219 11.820312 6.1933531 11.546116 5.6894531 10.941406 C 5.3007131 10.480676 5.1281781 9.976065 5.1425781 9.328125 L 3.875 9.328125 C 3.889398 10.292785 4.0766006 10.926053 4.4941406 11.501953 C 5.2140306 12.495413 6.4232844 13 8.0214844 13 C 9.2740844 13 10.295956 12.711679 10.972656 12.193359 C 11.678156 11.631839 12.125 10.696063 12.125 9.7890625 C 12.125 8.4932625 11.317998 7.5429969 9.8925781 7.1542969 L 7.2578125 6.4492188 C 5.9908125 6.1036687 5.53125 5.7008413 5.53125 4.8945312 C 5.53125 3.8291313 6.4659131 3.1230469 7.8769531 3.1230469 C 9.5471531 3.1230469 10.483647 3.8716962 10.498047 5.2539062 L 11.765625 5.2539062 C 11.765625 4.5340063 11.722557 4.33328 11.492188 3.84375 C 10.916268 2.63435 9.6909219 2 7.9199219 2 z M 2 14 L 2 15 L 14 15 L 14 14 L 2 14 z " />
</svg>

<svg width="16" height="16" version="1.1" xmlns="http://www.w3.org/2000/svg">
 <g fill="#363636">
  <path d="m2 14v1h12v-1z"/>
 </g>
 <g fill="#363636" stroke-width=".35995" aria-label="S">
  <path d="m11.765 5.2539c0-0.7199-0.04319-0.92147-0.27356-1.411-0.57592-1.2094-1.7997-1.8429-3.5707-1.8429-2.3037 0-3.7291 1.1806-3.7291 3.0812 0 1.2814 0.6767 2.0877 2.0589 2.4476l2.606 0.6911c1.339 0.34555 1.9293 0.87827 1.9293 1.699 0 0.56152-0.30236 1.1374-0.74869 1.4542-0.41754 0.30236-1.0798 0.44634-1.9293 0.44634-1.1518 0-1.9149-0.27356-2.4188-0.87827-0.38874-0.46073-0.56152-0.96466-0.54712-1.6126h-1.267c0.014398 0.96466 0.20157 1.5982 0.61911 2.1741 0.71989 0.99346 1.9293 1.4974 3.5275 1.4974 1.2526 0 2.2749-0.28796 2.9516-0.80628 0.7055-0.56152 1.1518-1.4974 1.1518-2.4044 0-1.2958-0.80628-2.2461-2.2317-2.6348l-2.6348-0.7055c-1.267-0.34555-1.7277-0.74869-1.7277-1.555 0-1.0654 0.93586-1.7709 2.3469-1.7709 1.6702 0 2.606 0.74869 2.6204 2.1309z" fill="#363636" stroke-width=".35995"/>
 </g>
</svg>
